X:2
T: Kate and Rose's Low Octave B part
M: C|
L: 1/8
K: G
E | \
"D"FD (3.D.D.D FDAD |F3 F FEDE  |"D"FD (3.D.D.D FDAD |"C"CB,A,B, "Am"CB,A,E  |
"D"FD (3.D.D.D FDAD |F3 F FEDB, |"C"C2    GC    ACGC |"G"B,3  B,     B,A,G, :|
%%text 05/22/10
